X: 77
T: SLIDES: Echoes of Killarney Set
T: Seán Dan Neil / Barrack Hill
C: C: Trad.; S: Brendan Begley / Méabh Begley & Matt Griffin / Séamus Begley
C: Set Leaders: Anton, Sophie
Z: Anton Zille ed., Oleg Naumov arr.; Bregolas at The Session
N: https://thesession.org/members/26966/sets/73135
R: Slide
M: 12/8
L: 1/8
Q: 3/8=130
K: Edor
|:"Em"B2E EDE B2A "D"F2A|"Em"B2E EDE "D"D2E F2A|
"Em"B2E EDE B2A "D"F2A|"Bm"B2A "D"d2F "Em"E3 E3:||
|:"G (Em)"B2A B2c "D"d2d dcB|"D/B"ABA A2d "A"e3 e2d|
"Em (G)"B2 A B2c "D"dfe dcB|"Bm"A2F D2F "A"E3 E3:||
T: Denis Murphy's No. 2 (Amaj) / Bedford Cross
K: Amaj
|:"Bm"B3 BAB "C#m"c2B "A"A2c|BA"D"F A2F "A"E2F A2c|"Bm"B2B BAB "C#m"c2B "A"A2c|
[1 "Bm"BAF A2F "E"E3 EFA:|2 "D/F#"BAF A2F "E"E3 E3||
|:"E"e2B BAB "A"c2B "D/F#"A3|BA"D"F A2F "A"E2F A3|"E"e2B BAB "A"c2B "D/F#"A2c|
[1 BA"D"F A2F "E"E3 E2f:|2 BA"D"F A2F "E"E2E EFA||
T: Echoes of Killarney (Amaj) / Art O'Keeffe's No. 2 / Mo Shéamuisín
K: Amaj
|:"A"A2E A2B "A"c2e "D"agf|"A"e2c cBc "D"e2c "E"BcB|
"A"A2E A2B c2e "A/C#"faf|1 "D"e2c "E"BcB "A"A2B c2B:|2 "D"e2c "E"BcB "A"A3 A3||
|:"F#m"a2g f2e f2g "E"a2f|"A"e2c cBc "E/C#"e2c cBc|
"F#m"a2g f2e "D"f2g a2f|1 "D"e2c "E"BcB "A"A3 A2a:|2 "D"e2c BcB "E"A2B c2B||

